X: 329
T: Hanchuan diao
%%abc-version 2.0
%%abcx-abcm2ps-target-version 5.9.1 (29 Sep 2008)
%%abc-creator hum2abc beta
%%abcx-conversion-date 2013/10/02 07:52:30
%%abc-edited-by Helmut Schaffrath
%%humdrum-veritas 3779029217
%%humdrum-veritas-data 76581758
%%continueall 1
%%barnumbers 0
L: 1/8
M: 2/4
K: G
d d c A [I:setbarnb 1]| 
A dA2 | 
A dA2 | 
d cA2 | 
A G/ A/G2 | 
d d F D | 
d GA2 | 
=F ED2 | 
D DG2 | 
A c/ A/G2 | 
A B/ A/G2 | 
A2z2 | 
A A/ d/G2 | 
A GD2 | 
A/ d/ GA2 | 
=f ED2 |]  



